X: 4787
T: Boys Of Portaferry, The
R: reel
M: 4/4
K: Amajor
cB|A2 cA BcdB|A/A/A ce afec|A2 cA Bcdf|ecAc d2:|
z2|c<e ae feae|c<e ae f2 fe|c<e ae fefg|afec d2:|

